!!!!SEGMENT: pl-sa--131-a-iii-31--005_luna-georgius--vesperae-laudate-dominum.krn
!!!cenid: 17xx:493
!!!COM: Luna, Georgius
!!!COM-rismID: pe41010079
!!!CDT:
!!!CNT:
!!!OPR: Vesperae
!!!OTL: Laudate Dominum
!!!OMV: 005
!!!PDT:
!!!AGN: Sacred; Vespers
!!!SMS-siglum: PL-SA
!!!SMS-shelfmark: 131/A III 31
!!!SMS-shelfwork: 001-005 M
!!!SMS-variant:
!!!SMS-altvar:
!!!NIFC-rismSourceID: 1001070694
!!!NIFC-islandoraID:
!!!URL-pdf-islandora:
!!!URL-scan: https://bc.bdsandomierz.pl/dlibra/publication/1488/edition/1456/content @EN{Scan in the Sandomierz Diocese Digital Library} @PL{Skany w portalu Cyfrowa Biblioteka Diecezjalna w Sandomierzu}
!!!ONB-nifc: UWAGA: części Vesperae: Dixit Dominus, Confitebor, Beatus vir, Laudate pueri, Laudate Dominum, Magnificat
!!!AIN: 2 empty 1 tenor 2 tromp 2 violn 1 vox
!!!key:
**kern	**kern	**kern	**kern	**text	**kern	**text	**kern	**text	**kern	**kern
*part8	*part7	*part6	*part5	*part5	*part4	*part4	*part3	*part3	*part2	*part1
*group4	*group3	*group3	*group2	*	*group2	*	*group2	*	*group1	*group1
*staff8	*staff7	*staff6	*staff5	*staff5	*staff4	*staff4	*staff3	*staff3	*staff2	*staff1
*Iempty	*Ivioln	*Ivioln	*Iempty	*	*Itenor	*	*Ivox	*	*Itromp	*Itromp
*I"Fondamento	*I"Violino Secundo	*I"Violino Primo	*I"Baſso	*	*I"Tenore	*	*I"Canto	*	*I"Tromba Secunda ex C.	*I"Tromba Prima ex C:
*I'Fond.	*I'Vl-no II	*I'Vl-no I	*I'B	*	*I'T	*	*I'C	*	*I'Tr-ba II	*I'Tr-ba I
*clefF4	*clefG2	*clefG2	*clefF4	*	*clefC4	*	*clefC1	*	*clefG2	*clefF4
*Trd0c0	*	*	*	*	*	*	*	*	*	*
*k[]	*k[]	*k[]	*k[]	*	*k[]	*	*k[]	*	*k[]	*k[]
*C:	*C:	*C:	*C:	*	*C:	*	*C:	*	*C:	*C:
*M3/4	*M3/4	*M3/4	*M3/4	*	*M3/4	*	*M3/4	*	*M3/4	*M3/4
=1	=1	=1	=1	=1	=1	=1	=1	=1	=1	=1
!LO:TX:a:t=problem:wybrakowane źródło - brak partii	!LO:TX:a:t=All(egr)o'	!LO:TX:a:t=All(egr)o'	!LO:TX:a:t=All(egr)o	!	!	!	!	!	!LO:TX:a:t=All(egr)o'	!LO:TX:a:t=All(egr)o'
!	!LO:TX:b:t=Laudate Dominu(m)	!	!	!	!	!	!	!	!LO:TX:b:t=Laudate Dominum	!LO:TX:b:t=Laudate Dominum
2.ryy	4ee\	4ee\	4c\	Lau-	4G/	Lau-	4ee\	Lau-	4cc\	4C/
*	*Xtuplet	*Xtuplet	*	*	*	*	*	*	*	*
!	!LO:TX:a:t=problem:brak oznaczenia triol	!LO:TX:a:t=problem:brak oznaczenia triol	!	!	!	!	!	!	!	!
.	12ee\L	12ee\L	4c\	-da-	4G/	-da-	4ee\	-da-	4cc\	4c\
.	12dd\	12dd\	.	.	.	.	.	.	.	.
.	12cc\J	12cc\J	.	.	.	.	.	.	.	.
.	8gg\L	8gg\L	4c\	-te	4G/	-te	4dd\	-te	4g/	4B\
.	8dd\J	8dd\J	.	.	.	.	.	.	.	.
=2	=2	=2	=2	=2	=2	=2	=2	=2	=2	=2
2.ryy	4ee\	4ee\	4A\	Do-	4E/	Do-	4cc\	Do-	4cc\	4A\
.	12ee\L	12ee\L	4A\	-mi-	4E/	-mi-	4cc\	-mi-	4r	4A\
.	12dd\	12dd\	.	.	.	.	.	.	.	.
.	12cc\J	12cc\J	.	.	.	.	.	.	.	.
.	8ee\L	8ee\L	4G\	-nu(m)	4E/	-nu(m)	4cc\	-num	4r	4G\
.	8b\J	8b\J	.	.	.	.	.	.	.	.
=3	=3	=3	=3	=3	=3	=3	=3	=3	=3	=3
2.ryy	8a/L	8a\L	8F\	om-	8A\	om-	8ff\	om-	4dd\	4F\
.	8a/	8ff\	8F\	-neſ	8d\	-nes	8ff\	-neſ	.	.
.	8g/	8ee\	4G\	gen-	4c\	gen-	4ee\	gen-	4cc\	4G\
.	8f/	8dd\	.	.	.	.	.	.	.	.
.	8e/	8cc\	4GG/	.	4B\	.	4dd\	.	4g/	4GG/
.	8d/J	8b\J	.	.	.	.	.	.	.	.
=4	=4	=4	=4	=4	=4	=4	=4	=4	=4	=4
2.ryy	4e/	8cc\L	4C/	-tes	4c\	-tes	4ee\	-tes	4e/	4C/
.	.	(16g\L	.	.	.	.	.	.	.	.
.	.	16a\JJ)	.	.	.	.	.	.	.	.
*	*	*2\right	*	*	*	*	*	*	*	*
.	8r	(2b-X\	4r	.	4r	.	4r	.	4r	8r
.	8e/L	.	.	.	.	.	.	.	.	8C/L
.	8f/	.	4r	.	4r	.	4r	.	4r	8D/
.	8g/J	.	.	.	.	.	.	.	.	8E/J
=5	=5	=5	=5	=5	=5	=5	=5	=5	=5	=5
!	!	!	!LO:N:vis=00	!	!LO:N:vis=00	!	!LO:N:vis=00	!	!LO:N:vis=0	!
2.ryy	4c/	8a\L)	0.r	.	0.r	.	0.r	.	1.r	4F\
.	.	16a\L	.	.	.	.	.	.	.	.
.	.	16bn\JJ	.	.	.	.	.	.	.	.
.	8r	(2cc\	.	.	.	.	.	.	.	8r
.	8f#X/L	.	.	.	.	.	.	.	.	8D\L
.	8g/	.	.	.	.	.	.	.	.	8E\
.	8a/J	.	.	.	.	.	.	.	.	8F#X\J
=6	=6	=6	=6	=6	=6	=6	=6	=6	=6	=6
2.ryy	4d/	8b\L)	.	.	.	.	.	.	.	4G\
.	.	16b\L	.	.	.	.	.	.	.	.
.	.	16cc\JJ	.	.	.	.	.	.	.	.
!	!	!LO:TX:a:t=problem:wymazany takt	!	!	!	!	!	!	!	!
.	8r	(2dd\	.	.	.	.	.	.	.	8r
.	8g#X/L	.	.	.	.	.	.	.	.	8E\L
.	8a/	.	.	.	.	.	.	.	.	8F#X\
.	8b/J	.	.	.	.	.	.	.	.	8G#X\J
=7	=7	=7	=7	=7	=7	=7	=7	=7	=7	=7
2.ryy	4e/	8cc\L)	.	.	.	.	.	.	2.r	4A\
.	.	16dd\L	.	.	.	.	.	.	.	.
.	.	16ee\JJ	.	.	.	.	.	.	.	.
.	8r	2ff\	.	.	.	.	.	.	.	8r
.	8b\L	.	.	.	.	.	.	.	.	8G\L
.	8cc\	.	.	.	.	.	.	.	.	8A\
.	8dd\J	.	.	.	.	.	.	.	.	8B\J
=8	=8	=8	=8	=8	=8	=8	=8	=8	=8	=8
2.ryy	8cc\L	8ee\L	.	.	.	.	.	.	4cc\	4c\
.	8ee\J	8gg\J	.	.	.	.	.	.	.	.
.	8ee\L	8gg\L	.	.	.	.	.	.	4r	4C/
.	(16dd\L	16ff\L	.	.	.	.	.	.	.	.
.	16cc\JJ)	16ee\JJ	.	.	.	.	.	.	.	.
.	8ff\L	8aa\L	.	.	.	.	.	.	8r	4C/
.	8dd\J	8gg\J	.	.	.	.	.	.	8ee\	.
=9	=9	=9	=9	=9	=9	=9	=9	=9	=9	=9
!	!	!	!LO:N:vis=0	!	!LO:N:vis=0	!	!LO:N:vis=0	!	!	!
2.ryy	8dd\L	8ff\L	1.r	.	1.r	.	1.r	.	4dd\	4G\
.	8dd\J	8ff\J	.	.	.	.	.	.	.	.
.	8dd\L	8ff\L	.	.	.	.	.	.	4r	4G\
.	(16cc\L	16ee\L	.	.	.	.	.	.	.	.
.	16b\JJ)	16dd\JJ	.	.	.	.	.	.	.	.
.	8ee\L	8gg\L	.	.	.	.	.	.	8r	4G\
.	8dd\J	8ff\J	.	.	.	.	.	.	8dd\	.
=10	=10	=10	=10	=10	=10	=10	=10	=10	=10	=10
!	!	!	!	!	!	!	!	!	!	!LO:TX:a:t=problem:mixed beam
2.ryy	8cc\L	8ee\L	.	.	.	.	.	.	4cc\	8C/L
.	16cc\L	16cc\L	.	.	.	.	.	.	.	8c\
.	16cc\JJ	16cc\JJ	.	.	.	.	.	.	.	.
.	16b/LL	16b/LL	.	.	.	.	.	.	4r	8B\
.	16b/	16b/	.	.	.	.	.	.	.	.
.	16a/	16a/	.	.	.	.	.	.	.	8A\
.	16a/JJ	16a/JJ	.	.	.	.	.	.	.	.
!	!	!LO:LB:g=original	!	!	!	!	!	!	!	!
.	16g/LL	16g/LL	.	.	.	.	.	.	4r	8G\
.	16g/	16g/	.	.	.	.	.	.	.	.
.	16f/	16f/	.	.	.	.	.	.	.	8F\J
.	16f/JJ	16f/JJ	.	.	.	.	.	.	.	.
=11	=11	=11	=11	=11	=11	=11	=11	=11	=11	=11
!	!LO:TX:a:t=problem:mixed beam	!LO:TX:a:t=problem:mixed beam	!	!	!	!	!	!	!	!
2.ryy	8e/L	8e/L	2.r	.	2.r	.	2.r	.	4cc\	4E\
.	8cc\J	8ee\J	.	.	.	.	.	.	.	.
.	4b\	4dd\	.	.	.	.	.	.	4g/	4G\
.	4dd\	4bb\	.	.	.	.	.	.	8g/L	4GG/
.	.	.	.	.	.	.	.	.	8g/J	.
!	!LO:LB:g=original	!	!	!	!	!	!	!	!	!
=12	=12	=12	=12	=12	=12	=12	=12	=12	=12	=12
2.ryy	4ee\	4ccc\	4c\	Lau-	4G/	Lau-	4ee\	Lau-	4cc\	4C/
.	4g/	12ee\L	4c\	-da-	4G/	-da-	4ee\	-da-	4cc\	4c\
.	.	12dd\	.	.	.	.	.	.	.	.
.	.	12cc\J	.	.	.	.	.	.	.	.
.	4g/	8gg\L	4B\	-te	4G/	-te	4dd\	-te	4g\	4B\
.	.	8dd\J	.	.	.	.	.	.	.	.
=13	=13	=13	=13	=13	=13	=13	=13	=13	=13	=13
2.ryy	4e/	4cc\	4A\	Do-	4E/	Do-	4cc\	Do-	4cc\	4A\
.	4e/	12cc\L	4A\	-mi-	4E/	-mi-	4cc\	-mi-	4r	4A\
.	.	12b\	.	.	.	.	.	.	.	.
.	.	12a\J	.	.	.	.	.	.	.	.
.	4e/	8ee\L	4G\	-nu(m)	4E/	-nu(m)	4cc\	-num	4r	4G\
.	.	8b\J	.	.	.	.	.	.	.	.
=14	=14	=14	=14	=14	=14	=14	=14	=14	=14	=14
2.ryy	8a/L	8a\L	8F\	om-	8d\	om-	8ff\	om-	4dd\	4F\
.	8a/	8ff\	8F\	-neſ	8d\	-nes	8ff\	-neſ	.	.
.	8g/	8ee\	4G\	gen-	4c\	gen-	4ee\	gen-	4cc\	4G\
.	8f/	8dd\	.	.	.	.	.	.	.	.
.	8e/	8cc\	4GG/	.	4B\	.	4dd\	.	4g/	4GG/
.	8d/J	8b\J	.	.	.	.	.	.	.	.
!	!	!	!	!	!	!	!	!	!	!LO:LB:g=original
=15	=15	=15	=15	=15	=15	=15	=15	=15	=15	=15
!	!LO:TX:a:t=problem:mixed beam	!	!	!	!	!	!	!	!	!LO:TX:a:t=problem:mixed beam
2.ryy	8e/L	8cc\L	4C/	-tes	4c\	-tes	4ee\	-tes	4e/	8C/L
.	8cc\J	8cc\J	.	.	.	.	.	.	.	8c\J
.	16g/LL	16g/LL	4r	.	4r	.	4r	.	4r	16G\LL
.	16f/	16f/	.	.	.	.	.	.	.	16F\
.	16e/	16e/	.	.	.	.	.	.	.	16E\
.	16d/JJ	16d/JJ	.	.	.	.	.	.	.	16D\JJ
.	4c/	4c/	4r	.	4r	.	4r	.	4r	4C/
!	!	!	!LO:LB:g=original	!	!	!	!	!	!LO:LB:g=original	!
=16	=16	=16	=16	=16	=16	=16	=16	=16	=16	=16
2.ryy	4ccc\	4ccc\	4c\	quo-	4G/	quo-	4ee\	quo-	4cc\	8C/L
.	.	.	.	.	.	.	.	.	.	8C/
.	16gg\LL	16gg\LL	8c\	-niam	8G/	-ni-	8ee\	-ni-	8cc\L	8C/
.	16ff\	16ff\	.	.	.	.	.	.	.	.
.	16ee\	16ee\	8c\	con-	8G/	-am	8ee\	-am	8cc\	8C/
.	16dd\JJ	16dd\JJ	.	.	.	.	.	.	.	.
.	8cc\L	8cc\L	8c\	-fir-	8G/	con-	8ee\	con-	8cc\	8C/
.	8ee\J	8ccc\J	8c\	.	8G/	-fir-	8ee\	-fir-	8cc\J	8C/J
=17	=17	=17	=17	=17	=17	=17	=17	=17	=17	=17
2.ryy	4cc\	4ee\	4G\	-ma-	4c\	-ma-	4ee\	-ma-	4cc\	8G\L
.	.	.	.	.	.	.	.	.	.	8G\
.	4b\	4dd\	4G\	-ta	4B\	-ta	4dd\	-ta	8g/L	8G\
.	.	.	.	.	.	.	.	.	8g/J	8G\
.	4b\	4dd\	4G\	est	4B\	est	4dd\	est	4g/	8G\
.	.	.	.	.	.	.	.	.	.	8G\J
!	!	!	!	!	!	!	!LO:LB:g=original	!	!	!
=18	=18	=18	=18	=18	=18	=18	=18	=18	=18	=18
*	*	*	*2\right	*	*2\right	*	*2\right	*	*	*
2.ryy	4ff\	4ff\	2G\	su-	2d\	su-	2ff\	su-	4dd\	8G\L
.	.	.	.	.	.	.	.	.	.	8G\
.	16dd\LL	16dd\LL	.	.	.	.	.	.	8dd\L	8G\
.	16cc\	16cc\	.	.	.	.	.	.	.	.
.	16b\	16b\	.	.	.	.	.	.	8dd\	8G\
.	16a\JJ	16a\JJ	.	.	.	.	.	.	.	.
!	!LO:TX:a:t=problem:mixed beam	!LO:TX:a:t=problem:mixed beam	!	!	!	!	!	!	!	!
.	8g/L	8g/L	4G\	-per	4d\	-per	4ff\	-per	8dd\	8G\
.	8dd\J	8ff\J	.	.	.	.	.	.	8dd\J	8G\J
!	!	!	!	!	!LO:LB:g=original	!	!	!	!	!
=19	=19	=19	=19	=19	=19	=19	=19	=19	=19	=19
!	!LO:TX:a:t=t	!LO:TX:a:t=t	!	!	!	!	!	!	!	!
2.ryy	4dd\	4ff\	4c\	noſ	4d\	noſ	(4ff\	nos	4dd\	4c\
.	4cc\	4ee\	4C/	.	4c\	.	4ee\)	.	4cc\	4C/
.	4ee\	4gg\	4C/	mi-	4e\	mi-	4gg\	mi-	4ee\	4r
=20	=20	=20	=20	=20	=20	=20	=20	=20	=20	=20
2.ryy	4ee\	4gg\	2C/	-se-	(4e\	-se-	(4gg\	-se-	4ee\	4C/
.	4dd\	4ff\	.	.	4d\)	.	4ff\)	.	4dd\	4r
.	4cc\	4ee\	4C/	-ri-	4c\	-ri-	4ee\	-ri-	4cc\	4r
=21	=21	=21	=21	=21	=21	=21	=21	=21	=21	=21
2.ryy	4ee\	4gg\	4C/	-cor-	4e\	-cor-	4gg\	-cor-	4ee\	4C/
.	4dd\	4ff\	4F\	-dia	4d\	-di-	4ff\	-di-	4dd\	4F\
.	4cc\	4ee\	4F\	.	4c\	-a	4ee\	-a	4cc\	4F#X\
!	!	!LO:PB:g=original	!	!	!	!	!	!	!	!
=22	=22	=22	=22	=22	=22	=22	=22	=22	=22	=22
!	!	!LO:TX:a:t=t	!	!	!	!	!	!	!	!
2.ryy	4cc\	4ee\	4G\	e-	4c\	e-	4ee\	e-	4cc\	4G\
.	4b\	4dd\	4G\	-jus	4B\	-jus	4dd\	-juſ	4g/	4GG/
.	4g\	4dd\	4B\	et	4B\	et	4dd\	et	4g/	4B\
=23	=23	=23	=23	=23	=23	=23	=23	=23	=23	=23
2.ryy	4g/	4.ee\	4c\	ve-	4G/	ve-	4.ee\	ve-	4cc\	4c\
.	4cc/	.	4A\	-ri-	4c\	-ri-	.	.	4r	4A\
.	.	16ff#X\LL	.	.	.	.	8ee\	-ri-	.	.
.	.	16gg\JJ	.	.	.	.	.	.	.	.
.	4a/	8aa\L	4F#X\	-tas	4c\	-taſ	4ee\	-taſ	4r	4F#X\
.	.	8ee\J	.	.	.	.	.	.	.	.
=24	=24	=24	=24	=24	=24	=24	=24	=24	=24	=24
.	.	8qqee/	.	.	.	.	.	.	.	.
2.ryy	4g/	4.dd\	4B\	Do-	4G\	Do-	4dd\	Do-	4g/	4B\
.	4b/	.	4G\	-mi-	4B\	-mi-	4dd\	-mi-	4r	4G\
.	.	16ee\LL	.	.	.	.	.	.	.	.
.	.	16ff#X\JJ	.	.	.	.	.	.	.	.
.	4g/	8gg\L	4E\	-ni	4B\	-ni	4dd\	-ni	4r	4E\
.	.	8dd\J	.	.	.	.	.	.	.	.
!	!	!	!LO:LB:g=original	!	!	!	!	!	!	!
=25	=25	=25	=25	=25	=25	=25	=25	=25	=25	=25
.	.	8qqdd/	.	.	.	.	.	.	.	.
2.ryy	4f#X/	4.cc\	(4A\	ma-	4E/	ma-	2cc\	ma-	4dd\	4A\
.	4a/	.	4F#X\)	.	2A/	-net	.	.	4r	4F#X\
.	.	8aa\L	.	.	.	.	.	.	.	.
.	4f#/	8ff#X\	4D\	-net	.	.	4cc\	-net	8r	4D\
.	.	8cc\J	.	.	.	.	.	.	16dd\LL	.
.	.	.	.	.	.	.	.	.	16dd\JJ	.
=26	=26	=26	=26	=26	=26	=26	=26	=26	=26	=26
2.ryy	8g/L	8b\L	8G\	in	8G/	in	8b\	in	4g/	4G\
.	8b/J	8gg\J	8G\	ae-	8G/	ae-	8b\	ae-	.	.
!	!LO:TX:a:t=SIC!:s=4f#	!	!	!	!	!	!	!	!	!
.	4f/	4a/	4d\	-ter-	2F#X/	-ter-	2a\	-ter-	4dd\	4d\
.	4a/	4ff#X\	4D\	.	.	.	.	.	8dd\L	4D\
.	.	.	.	.	.	.	.	.	8dd\J	.
!	!LO:PB:g=original	!	!	!	!	!	!	!	!	!
=27	=27	=27	=27	=27	=27	=27	=27	=27	=27	=27
2.ryy	4b\	8gg\L	4G\	-num	4G/	-num	4b\	-num	4g/	4G\
.	.	(16dd\L	.	.	.	.	.	.	.	.
.	.	16ee\JJ)	.	.	.	.	.	.	.	.
.	8r	(2ffn\	4r	.	4r	.	4r	.	4r	8r
.	8b\L	.	.	.	.	.	.	.	.	8GG/L
.	8cc\	.	4r	.	4r	.	4r	.	4r	8AA/
.	8dd\J	.	.	.	.	.	.	.	.	8BB/J
=28	=28	=28	=28	=28	=28	=28	=28	=28	=28	=28
!	!	!	!	!	!	!	!	!	!LO:TX:a:t=3	!
!	!	!	!LO:N:vis=00	!	!LO:N:vis=00	!	!LO:N:vis=00	!	!LO:N:vis=0	!
2.ryy	4g/	8ee\L)	0.r	.	0.r	.	0.r	.	1.r	4C/
.	.	16ee\L	.	.	.	.	.	.	.	.
.	.	16ff#X\JJ	.	.	.	.	.	.	.	.
.	8r	2gg\	.	.	.	.	.	.	.	8r
.	8cc#X\L	.	.	.	.	.	.	.	.	8AA/L
.	8dd\	.	.	.	.	.	.	.	.	8BB/
.	8ee\J	.	.	.	.	.	.	.	.	8C#X/J
!	!	!	!	!	!	!	!	!	!	!LO:LB:g=original
=29	=29	=29	=29	=29	=29	=29	=29	=29	=29	=29
2.ryy	4a/	8ff#X\L	.	.	.	.	.	.	.	4D/
.	.	16ff#\L	.	.	.	.	.	.	.	.
.	.	16ggn\JJ	.	.	.	.	.	.	.	.
.	8r	(2aa\	.	.	.	.	.	.	.	8r
.	8dd#X\L	.	.	.	.	.	.	.	.	8BB/L
.	8ee\	.	.	.	.	.	.	.	.	8C#X/
.	8ff\J	.	.	.	.	.	.	.	.	8D#X/J
=30	=30	=30	=30	=30	=30	=30	=30	=30	=30	=30
2.ryy	4b\	8gg\L)	.	.	.	.	.	.	2.r	4E\
.	.	16aa\L	.	.	.	.	.	.	.	.
.	.	16bb\JJ	.	.	.	.	.	.	.	.
.	8r	2ccc\	.	.	.	.	.	.	.	8r
.	8ff#X\L	.	.	.	.	.	.	.	.	8Dn\L
.	8gg\	.	.	.	.	.	.	.	.	8E\
.	8aa\J	.	.	.	.	.	.	.	.	8F\J
!	!	!	!	!	!	!	!	!	!LO:LB:g=original	!
=31	=31	=31	=31	=31	=31	=31	=31	=31	=31	=31
2.ryy	8gg\L	8bb\L	.	.	.	.	.	.	4g/	4G\
.	8b\J	8dd\J	.	.	.	.	.	.	.	.
.	8b\L	8dd\L	.	.	.	.	.	.	4r	4GG/
.	16a\L	(16cc\L	.	.	.	.	.	.	.	.
.	16g\JJ	16b\JJ)	.	.	.	.	.	.	.	.
.	8cc\L	8ee\L	.	.	.	.	.	.	8r	4GG/
.	8b\J	8dd\J	.	.	.	.	.	.	8g/	.
=32	=32	=32	=32	=32	=32	=32	=32	=32	=32	=32
!	!	!	!LO:N:vis=0	!	!LO:N:vis=0	!	!LO:N:vis=0	!	!	!
2.ryy	8a/L	8cc\L	1.r	.	1.r	.	1.r	.	4dd\	4D\
.	8a/J	8cc\J	.	.	.	.	.	.	.	.
.	8a/L	8cc\L	.	.	.	.	.	.	4r	4D\
.	16g/L	(16b\L	.	.	.	.	.	.	.	.
.	16f/JJ	16a\JJ)	.	.	.	.	.	.	.	.
.	8b/L	8dd\L	.	.	.	.	.	.	8r	4D\
.	8a/J	8cc\J	.	.	.	.	.	.	8dd\	.
!	!	!LO:LB:g=original	!	!	!	!	!	!	!	!
=33	=33	=33	=33	=33	=33	=33	=33	=33	=33	=33
!	!	!	!	!	!	!	!	!	!	!LO:TX:a:t=problem:mixed beam
2.ryy	8g/L	8b/L	.	.	.	.	.	.	4g/	8GG/L
.	16g/L	16g/L	.	.	.	.	.	.	.	8G\
.	16g/JJ	16g/JJ	.	.	.	.	.	.	.	.
.	16f#X/LL	16f#X/LL	.	.	.	.	.	.	4r	8F#X\
.	16f#/	16f#/	.	.	.	.	.	.	.	.
.	16e/	16e/	.	.	.	.	.	.	.	8E\
.	16e/JJ	16e/JJ	.	.	.	.	.	.	.	.
.	16d/LL	16d/LL	.	.	.	.	.	.	4r	8D\
.	16d/	16d/	.	.	.	.	.	.	.	.
.	16c/	16c/	.	.	.	.	.	.	.	8C\J
.	16c/JJ	16c/JJ	.	.	.	.	.	.	.	.
=34	=34	=34	=34	=34	=34	=34	=34	=34	=34	=34
!	!	!LO:TX:a:t=problem:mixed beam	!	!	!	!	!	!	!	!
2.ryy	8B/L	8B/L	2.r	.	2.r	.	2.r	.	4r	8BB/L
.	8b/J	8gg\J	.	.	.	.	.	.	.	8GG/J
.	4f#X/	4a/	.	.	.	.	.	.	4dd\	4D/
!	!	!LO:TX:a:t=t	!	!	!	!	!	!	!	!
.	4a/	4ff#X\	.	.	.	.	.	.	8dd\L	4DD/
.	.	.	.	.	.	.	.	.	8dd\J	.
=35	=35	=35	=35	=35	=35	=35	=35	=35	=35	=35
2.ryy	4b\	8gg\L	4G\	glo-	4B\	Glo-	4dd\	glo-	4g/	4GG/
.	.	8dd\	.	.	.	.	.	.	.	.
.	4b\	8b\	4G\	-ria	4B\	-ria	4dd\	-ria	4g/	4G\
.	.	8g\J	.	.	.	.	.	.	.	.
.	4b\	4gg\	4G\	.	4B\	.	4dd\	Pa-	4g/	4G\
=36	=36	=36	=36	=36	=36	=36	=36	=36	=36	=36
2.ryy	4dd\	8ff\L	4G\	Pa-	4B\	Pa-	4dd\	-tri	4g/	4G\
.	.	8dd\	.	.	.	.	.	.	.	.
.	4dd\	8b\	4G\	-tri	4B\	-tri	4dd\	et	4g/	4G\
.	.	8g\J	.	.	.	.	.	.	.	.
.	4dd\	4ff\	4G\	et	4B\	et	4dd\	.	4g/	4G\
!	!	!	!	!	!	!	!LO:LB:g=original	!	!	!
=37	=37	=37	=37	=37	=37	=37	=37	=37	=37	=37
2.ryy	4b\	8ff\L	(4G\	Fi-	(4B\	Fi-	2ff\	Fi-	4g/	4G\
.	.	8dd\	.	.	.	.	.	.	.	.
.	4cc\	8b\	4A\)	.	4c\)	.	.	.	4r	4A\
.	.	8g\J	.	.	.	.	.	.	.	.
.	.	8qqg/	.	.	.	.	.	.	.	.
.	4dd\	4f/	4B\	-li-	4d\	-li-	4ff\	-li-	4dd\	4B\
!	!LO:LB:g=original	!	!	!	!LO:LB:g=original	!	!	!	!	!
=38	=38	=38	=38	=38	=38	=38	=38	=38	=38	=38
2.ryy	8cc\L	8d/L	4c\	-o	4c\	-o	4ee\	-o	4cc\	8c\L
!	!	!	!	!	!	!	!	!	!	!LO:TX:a:t=problem:zamazana nuta
.	8cc\	8cc/	.	.	.	.	.	.	.	8c\
.	8g\	8g/	4r	.	4r	.	4r	.	4r	8G\
.	8e\J	8e/J	.	.	.	.	.	.	.	8E\J
.	4c/	4c/	4r	.	4r	.	4r	.	4r	4C/
.	.	.	.	.	.	.	.	.	.	.
=39	=39	=39	=39	=39	=39	=39	=39	=39	=39	=39
2.ryy	4g/	4ee\	2c\	et	2G/	et	2ee\	et	4cc\	4C/
.	4g/	(12ee\L	.	.	.	.	.	.	4cc\	4c\
.	.	12dd\	.	.	.	.	.	.	.	.
.	.	12cc\J)	.	.	.	.	.	.	.	.
.	4g/	8gg\L	4B\	Spi-	4G/	Spi-	4dd\	Spi-	4g\	4B\
.	.	8dd\J	.	.	.	.	.	.	.	.
=40	=40	=40	=40	=40	=40	=40	=40	=40	=40	=40
2.ryy	4e/	4cc\	4A\	-ri-	4E/	-ri-	4cc\	-ri-	4cc\	4A\
.	4e/	(12cc\L	4A\	-tu-	4E/	-tu-	4cc\	-tui	4r	4A\
.	.	12b\	.	.	.	.	.	.	.	.
.	.	12a\J)	.	.	.	.	.	.	.	.
.	4e/	8ee\L	4G\	-i	4E/	-i	4b\	.	4r	4G\
.	.	8b\J	.	.	.	.	.	.	.	.
!	!	!	!LO:LB:g=original	!	!	!	!	!	!	!
=41	=41	=41	=41	=41	=41	=41	=41	=41	=41	=41
2.ryy	8a/L	8a\L	4F\	Sanc-	4d\	Sanc-	4ff\	Sanc-	4dd\	4F\
.	8a/	8ff\	.	.	.	.	.	.	.	.
.	8g/	8ee\	4G\	.	4c\	.	4ee\	.	4cc\	4G\
.	8f/	8dd\	.	.	.	.	.	.	.	.
.	8e/	8cc\	4GG/	.	4B\	.	4dd\	.	4g/	4GG/
.	8d/J	8b\J	.	.	.	.	.	.	.	.
=42	=42	=42	=42	=42	=42	=42	=42	=42	=42	=42
!	!LO:TX:a:t=problem:mixed beam	!	!	!	!	!	!	!	!LO:TX:a:t=problem:mixed beam	!
2.ryy	8e/L	8cc\L	4C/	-to	4c\	-to	4ee\	-to	8e/L	4C/
.	8e/	8cc\	.	.	.	.	.	.	8cc\	.
.	8gg\	8bb-X\	8c\	si-	8G\	si-	8ee\	si-	8cc\	4C/
.	8ee\	8gg\	8c\	-cut e-	8G\	-cut e-	8ee\	-cut e-	8cc\	.
.	8cc\	8ee\	4c\	.	4G\	.	4ee\	.	8cc\	4C/
.	8g\J	8b-X\J	.	.	.	.	.	.	8cc\J	.
=43	=43	=43	=43	=43	=43	=43	=43	=43	=43	=43
!	!LO:TX:a:t=problem:mixed beam	!LO:TX:a:t=a	!	!	!	!	!	!	!	!
2.ryy	8f/L	8a\L	4F\	-rat	4A\	-rat	4ff\	-rat	8cc\L	4F\
.	8dd\	8dd\	.	.	.	.	.	.	8dd\	.
.	8aa\	8ccc\	8d\	in	8A\	in	8ff#X\	in	8dd\	4D\
.	8ff\	8aa\	8d\	prin-	8A\	prin-	8ff#\	prin-	8dd\	.
.	8dd\	8ff#X\	8d\	-ci-	8A\	-ci-	8ff#\	-ci-	8dd\	4D\
.	8a\J	8cc\J	8d\	-pi-	8A\	-pio	8ff#\	-pi-	8dd\J	.
!	!	!LO:LB:g=original	!	!	!	!	!	!	!LO:LB:g=original	!LO:PB:g=original
=44	=44	=44	=44	=44	=44	=44	=44	=44	=44	=44
!	!	!	!	!	!	!	!	!	!	!LO:TX:a:t=problem:brak kontynuacji w źródle
2.ryy	8g/L	8b\L	8G\	-o	8B\	.	8gg\	-o	8dd\L	2.ryy
.	8d/	8g\	8G\	et	8B\	et	8dd\	et	8g\	.
.	8g/	8b\	8G\	nunc	8B\	nunc	8dd\	nunc	8g\	.
.	8b/	8dd\	8G\	et	8B\	et	8dd\	et	8g\	.
.	8dd/	8ffn\	8BB/	nunc	8d\	nunc	8ffn\	nunc	8dd\	.
.	8cc/J	8ee\J	8C/	et	8c\	et	8ee\	et	8cc\J	.
=45	=45	=45	=45	=45	=45	=45	=45	=45	=45	=45
!	!LO:TX:a:t=t	!	!	!	!	!	!	!	!	!
2.ryy	4cc\	4ee\	4G\	Sem-	4c\	Sem-	4ee\	Sem-	4cc\	2.ryy
.	4b\	4dd\	4G\	-per	4B\	-per	4dd\	-per	4g\	.
.	4r	4r	4r	.	4r	.	4r	.	4r	.
=46	=46	=46	=46	=46	=46	=46	=46	=46	=46	=46
2.ryy	8r	8r	4r	.	4r	.	4r	.	8r	2.ryy
.	16cc\LL	16ee\LL	.	.	.	.	.	.	16cc\LL	.
.	16dd\JJ	16ff\JJ	.	.	.	.	.	.	16dd\JJ	.
.	8ee\L	8gg\L	8C/	et	8e\	et	8gg\	et	8ee\L	.
.	16dd\L	16ff\L	8C/	in	8e\	in	8gg\	in	8ee\	.
.	16cc\JJ	16ee\JJ	.	.	.	.	.	.	.	.
!	!	!	!	!	!	!	!LO:LB:g=original	!	!	!
.	8ff\L	8aa\L	8C/	Sae-	8f\	Sae-	8aa\	Sae-	8ff\	.
.	8ee\J	8gg\J	8C/	-cu-	8e\	-cu-	8gg\	-cu-	8ee\J	.
!	!	!	!	!	!LO:LB:g=original	!	!	!	!	!
=47	=47	=47	=47	=47	=47	=47	=47	=47	=47	=47
2.ryy	8dd\L	8ff\L	4G\	-la	4d\	-la	4ff\	-la	8dd\L	2.ryy
.	8dd\J	8ff\J	.	.	.	.	.	.	8dd\J	.
.	8dd\L	8ff\L	8G\	Saecu-	8d\	Saecu-	8ff\	Saecu-	8dd\L	.
.	(16cc\L	16ee\L	8G\	.	8d\	-lo-	8ff\	-lo-	16cc\L	.
.	16b\JJ)	16dd\JJ	.	.	.	.	.	.	16g\JJ	.
.	8ee\L	8gg\L	4G\	-lo-	8e\L	.	8gg\L	.	8ee\L	.
.	8dd\J	8ff\J	.	.	8d\J	.	8ff\J	.	8dd\J	.
!	!	!	!LO:LB:g=original	!	!	!	!	!	!	!
=48	=48	=48	=48	=48	=48	=48	=48	=48	=48	=48
2.ryy	8cc\L	8ee\L	4C\	-rum	4c\	-rum	4ee\	-rum	4cc\	2.ryy
.	8ee\J	8ccc\J	.	.	.	.	.	.	.	.
.	4b\	4dd\	4G\	a-	2B\	a-	2dd\	a-	4g\	.
.	4dd\	4bb\	4GG/	.	.	.	.	.	4g\	.
=49	=49	=49	=49	=49	=49	=49	=49	=49	=49	=49
!	!LO:TX:a:t=problem:mixed beam	!LO:TX:a:t=problem:mixed beam	!	!	!	!	!	!	!	!
2.ryy	8ee\L	8ccc\L	4C/	-men	4c\	-men	4ee\	-men	4cc\	2.ryy
.	16c/L	16e/L	.	.	.	.	.	.	.	.
.	16d/JJ	16f/JJ	.	.	.	.	.	.	.	.
.	8e/L	8g/L	8C/	et	8G/	et	8ee\	et	4r	.
.	16d/L	16f/L	8C/	in	8G/	in	8ee\	in	.	.
.	16c/JJ	16e/JJ	.	.	.	.	.	.	.	.
.	8f/L	8a/L	8C/	Sae-	8A/	Sae-	8ff\	Sae-	8r	.
.	8e/J	8g/J	8C/	-cu-	8G/	-cu-	8ee\	-cu-	8ee\	.
!	!LO:LB:g=original	!	!	!	!	!	!	!	!	!
=50	=50	=50	=50	=50	=50	=50	=50	=50	=50	=50
2.ryy	8d/L	8f/L	4G\	-la	4F/	-la	4dd\	-la	4dd\	2.ryy
.	8d/J	8f/J	.	.	.	.	.	.	.	.
.	8d/L	8f/L	8G\	Sae-	8F/	Sae-	8dd\	Sae-	4r	.
.	16c/L	16e/L	8G\	-cu-	8F/	-cu-	8dd\	-cu-	.	.
.	16B/JJ	16d/JJ	.	.	.	.	.	.	.	.
.	8e/L	8g/L	4G\	-lo-	8G/	-lo-	8ee\L	-lo-	8r	.
.	8d/J	8f/J	.	.	8F/	.	8dd\J	.	8dd\	.
=51	=51	=51	=51	=51	=51	=51	=51	=51	=51	=51
!	!	!LO:TX:a:t=problem:mixed beam	!	!	!	!	!	!	!	!
2.ryy	8c/L	8e/L	4C/	-rum	4E/	-rum	4cc\	-rum	4cc\	2.ryy
.	8e/J	8cc\J	.	.	.	.	.	.	.	.
.	4B/	4d/	4G\	a-	2B\	a-	2dd\	a-	4g\	.
.	4d/	4b\	4GG/	.	.	.	.	.	4g\	.
=52	=52	=52	=52	=52	=52	=52	=52	=52	=52	=52
!	!LO:TX:a:t=problem:mixed beam	!	!	!	!	!	!	!	!	!
2.ryy	8e/L	8cc\L	4C/	-men	4c\	-men	4ee\	-men	4cc\	2.ryy
.	8ee\J	8ccc\J	.	.	.	.	.	.	.	.
.	4b\	4dd\	4G\	a-	2B\	a-	2dd\	a-	4g\	.
.	4dd\	4bb\	4GG/	.	.	.	.	.	4g\	.
=53	=53	=53	=53	=53	=53	=53	=53	=53	=53	=53
2.ryy	4ee\	4ccc\	4C/	-men	4c\	-men	4ee\	-men	4cc\	2.ryy
.	4r	4r	4r	.	4r	.	4r	.	4r	.
.	4r	4r	4r	.	4r	.	4r	.	4r	.
==	==	==	==	==	==	==	==	==	==	==
*-	*-	*-	*-	*-	*-	*-	*-	*-	*-	*-
!!!system-decoration: [(g1)][(g2)][(g3)]{g4}
!!!ENC: Anna Matuszewska
!!!END: 2020-08-10
